deepin/status/network-wireless-offline-symbolic.svg

<?xml version="1.0" encoding="UTF-8" standalone="no"?>
<svg width="16px" height="16px" viewBox="0 0 16 16" version="1.1" xmlns="http://www.w3.org/2000/svg" xmlns:xlink="http://www.w3.org/1999/xlink">
    <!-- Generator: Sketch 39.1 (31720) - http://www.bohemiancoding.com/sketch -->
    <title>network-wireless-offline-symbolic</title>
    <desc>Created with Sketch.</desc>
    <defs></defs>
    <g id="Page-1" stroke="none" stroke-width="1" fill="none" fill-rule="evenodd">
        <g id="network-wireless-offline-symbolic">
            <g id="Group-6">
                <polygon id="Fill-122" points="0 16 16 16 16 0 0 0"></polygon>
                <path d="M1.0269,6.579 C1.9189,5.628 2.9819,4.859 4.1599,4.327 C5.3389,3.794 6.6349,3.5 7.9929,3.5 C9.3519,3.5 10.6469,3.794 11.8259,4.327 C13.0049,4.859 14.0669,5.628 14.9589,6.579" id="Stroke-144" stroke="#FFFFFF" stroke-width="1.2" stroke-linecap="round"></path>
                <path d="M10.731,7.0903 C11.152,7.2803 11.552,7.5123 11.927,7.7823 C12.301,8.0523 12.65,8.3593 12.969,8.6993" id="Stroke-146" stroke="#FFFFFF" stroke-width="1.2" stroke-linecap="round"></path>
                <path d="M3.0172,8.6991 C3.3362,8.3601 3.6852,8.0521 4.0592,7.7821 C4.4342,7.5131 4.8342,7.2801 5.2552,7.0901" id="Stroke-148" stroke="#FFFFFF" stroke-width="1.2" stroke-linecap="round"></path>
                <path d="M10.9803,10.818 C10.7893,10.614 10.5803,10.43 10.3553,10.269" id="Stroke-150" stroke="#FFFFFF" stroke-width="1.2" stroke-linecap="round"></path>
                <path d="M5.0064,10.818 C5.1974,10.614 5.4064,10.43 5.6314,10.269" id="Stroke-152" stroke="#FFFFFF" stroke-width="1.2" stroke-linecap="round"></path>
                <path d="M9,13 C9,13.5525 8.5525,14 8,14 C7.4475,14 7,13.5525 7,13 C7,12.4475 7.4475,12 8,12 C8.5525,12 9,12.4475 9,13" id="Fill-253" fill="#FFFFFF"></path>
                <path d="M8.0634,11.25 L7.9544,11.25 C7.5714,11.25 7.2584,10.937 7.2584,10.555 L7.2584,5.445 C7.2584,5.063 7.5714,4.75 7.9544,4.75 L8.0634,4.75 C8.4454,4.75 8.7584,5.063 8.7584,5.445 L8.7584,10.555 C8.7584,10.937 8.4454,11.25 8.0634,11.25" id="Fill-254" fill="#FFFFFF"></path>
            </g>
        </g>
    </g>
</svg>

<?xml version="1.0" encoding="iso-8859-1"?>
<!-- Generator: Adobe Illustrator 18.0.0, SVG Export Plug-In . SVG Version: 6.00 Build 0)  -->
<!DOCTYPE svg PUBLIC "-//W3C//DTD SVG 1.1//EN" "http://www.w3.org/Graphics/SVG/1.1/DTD/svg11.dtd">
<svg version="1.1" id="&#x56FE;&#x5C42;_1" xmlns="http://www.w3.org/2000/svg" xmlns:xlink="http://www.w3.org/1999/xlink" x="0px"
	 y="0px" viewBox="0 0 16 16" style="enable-background:new 0 0 16 16;" xml:space="preserve">
<path style="fill:none;stroke:#FFFFFF;stroke-linecap:round;stroke-miterlimit:10;" d="M1.027,6.579
	c0.892-0.951,1.955-1.72,3.133-2.252S6.634,3.5,7.993,3.5c1.359,0,2.654,0.294,3.833,0.827s2.241,1.302,3.133,2.252"/>
<path style="fill:none;stroke:#FFFFFF;stroke-linecap:round;stroke-miterlimit:10;" d="M10.731,7.09
	c0.421,0.19,0.821,0.422,1.196,0.692c0.375,0.27,0.724,0.577,1.042,0.917"/>
<path style="fill:none;stroke:#FFFFFF;stroke-linecap:round;stroke-miterlimit:10;" d="M3.017,8.699
	C3.336,8.36,3.685,8.052,4.06,7.783C4.434,7.513,4.834,7.28,5.255,7.09"/>
<path style="fill:none;stroke:#FFFFFF;stroke-linecap:round;stroke-miterlimit:10;" d="M10.98,10.818
	c-0.191-0.204-0.4-0.388-0.625-0.549"/>
<path style="fill:none;stroke:#FFFFFF;stroke-linecap:round;stroke-miterlimit:10;" d="M5.006,10.818
	c0.191-0.204,0.4-0.388,0.625-0.549"/>
<circle style="fill:#FFFFFF;" cx="8.009" cy="13" r="0.8"/>
<path style="fill:#FFFFFF;" d="M8.063,11.25H7.954c-0.382,0-0.695-0.313-0.695-0.695l0-5.109c0-0.382,0.313-0.695,0.695-0.695h0.109
	c0.382,0,0.695,0.313,0.695,0.695v5.109C8.759,10.937,8.446,11.25,8.063,11.25z"/>
</svg>
